Numix-Light/22/status/yd-ind-idle.svg

<?xml version="1.0" encoding="UTF-8" standalone="no"?>
<!-- Created with Inkscape (http://www.inkscape.org/) -->

<svg
   xmlns:dc="http://purl.org/dc/elements/1.1/"
   xmlns:cc="http://creativecommons.org/ns#"
   xmlns:rdf="http://www.w3.org/1999/02/22-rdf-syntax-ns#"
   xmlns:svg="http://www.w3.org/2000/svg"
   xmlns="http://www.w3.org/2000/svg"
   xmlns:sodipodi="http://sodipodi.sourceforge.net/DTD/sodipodi-0.dtd"
   xmlns:inkscape="http://www.inkscape.org/namespaces/inkscape"
   id="svg2"
   version="1.1"
   inkscape:version="0.91 r"
   width="22"
   height="22"
   viewBox="0 0 22 22"
   sodipodi:docname="yd-ind-idle.svg">
  <metadata
     id="metadata8">
    <rdf:RDF>
      <cc:Work
         rdf:about="">
        <dc:format>image/svg+xml</dc:format>
        <dc:type
           rdf:resource="http://purl.org/dc/dcmitype/StillImage" />
        <dc:title />
      </cc:Work>
    </rdf:RDF>
  </metadata>
  <defs
     id="defs6" />
  <sodipodi:namedview
     pagecolor="#ffffff"
     bordercolor="#666666"
     borderopacity="1"
     objecttolerance="10"
     gridtolerance="10"
     guidetolerance="10"
     inkscape:pageopacity="0"
     inkscape:pageshadow="2"
     inkscape:window-width="1366"
     inkscape:window-height="747"
     id="namedview4"
     showgrid="false"
     showguides="false"
     inkscape:zoom="5.656854"
     inkscape:cx="-8.1440945"
     inkscape:cy="13.346985"
     inkscape:window-x="0"
     inkscape:window-y="21"
     inkscape:window-maximized="1"
     inkscape:current-layer="svg2">
    <inkscape:grid
       type="xygrid"
       id="grid4142" />
  </sodipodi:namedview>
  <ellipse
     style="opacity:1;fill:#353535;fill-opacity:1;fill-rule:nonzero;stroke:none;stroke-width:1;stroke-linecap:square;stroke-linejoin:round;stroke-miterlimit:4;stroke-dasharray:none;stroke-dashoffset:0;stroke-opacity:1"
     id="path4138"
     cx="7.4652166"
     cy="14.796921"
     rx="10.327949"
     ry="3.0550735"
     transform="matrix(0.96527118,-0.26124998,0.2564075,0.96656877,0,0)" />
  <path
     style="opacity:1;fill:#353535;fill-opacity:1;fill-rule:evenodd;stroke:none;stroke-width:1px;stroke-linecap:butt;stroke-linejoin:miter;stroke-opacity:1"
     d="M 9.2303975,5.7477071 C 9.0425845,5.7980293 8.7402227,5.907466 8.5230223,6.041746 8.0718322,6.320686 7.5124425,6.859656 7.3196548,7.0830571 7.0644726,7.3787605 6.7995595,7.839525 6.6012758,8.1739716 6.3586236,8.5832572 6.2499892,8.8219006 6.0490696,9.1304217 5.8666345,9.4105584 5.672292,9.6842873 5.4572533,9.940252 5.3502066,10.067671 5.2071371,10.22291 5.0558082,10.382343 6.4814169,9.7294784 8.1460918,9.1305306 9.9596845,8.6396839 11.798755,8.1419405 13.559906,7.8179072 15.134301,7.665965 14.93389,7.6063094 14.743358,7.5463249 14.594007,7.4920661 14.279798,7.3779127 13.974926,7.2379483 13.676866,7.0865594 13.348606,6.9198316 13.135199,6.7674782 12.720417,6.5343527 12.381477,6.3438549 11.921668,6.0772782 11.552825,5.9487827 11.274168,5.8517049 10.520235,5.6646382 9.9900235,5.6486649 c -0.255242,-0.00767 -0.605077,0.057633 -0.759626,0.099044 z"
     id="path4144"
     inkscape:connector-curvature="0"
     sodipodi:nodetypes="sssssscscssssss" />
</svg>

<!-- Created with Inkscape (http://www.inkscape.org/) -->
<svg xmlns="http://www.w3.org/2000/svg" viewBox="0 0 22 22">
 <ellipse cx="7.465" cy="14.797" rx="10.328" ry="3.055" transform="matrix(0.96527118,-0.26124998,0.2564075,0.96656877,0,0)" style="fill:#353535;opacity:1;fill-opacity:1;stroke:none;fill-rule:nonzero"/>
 <path d="m 9.23 5.748 c -0.188 0.05 -0.49 0.16 -0.707 0.294 -0.451 0.279 -1.01 0.818 -1.203 1.041 -0.255 0.296 -0.52 0.756 -0.718 1.091 -0.243 0.409 -0.351 0.648 -0.552 0.956 -0.182 0.28 -0.377 0.554 -0.592 0.81 -0.107 0.127 -0.25 0.283 -0.401 0.442 1.426 -0.653 3.09 -1.252 4.904 -1.743 1.839 -0.498 3.6 -0.822 5.175 -0.974 -0.2 -0.06 -0.391 -0.12 -0.54 -0.174 -0.314 -0.114 -0.619 -0.254 -0.917 -0.406 -0.328 -0.167 -0.542 -0.319 -0.956 -0.552 -0.339 -0.19 -0.799 -0.457 -1.168 -0.586 -0.279 -0.097 -1.033 -0.284 -1.563 -0.3 c -0.255 -0.008 -0.605 0.058 -0.76 0.099 z" style="fill:#353535;opacity:1;fill-opacity:1;stroke:none;fill-rule:evenodd"/>
</svg>
